X: 19598
T: Jamie's
R: jig
M: 6/8
K: Gmajor
Bc|:ded cBc|dGA Bcd|Bcc A=FA|cdc cBA||
GBd gag|fde =f2d|cdc AGF|1 AGF GBc:|2 AGF GBd||
g2a bag|ece d2c|Bcd gdB|A=FA cBA|
GBd gag|ece d2c|Bcd cAF|AGF GBd|
g2a bag|ece d2c|Bcd Bcd|A=FA cBc|
ded cBc|dfa g2f|ded cAF|AGF G3||

